svg/check-ins/house.svg

<svg xmlns="http://www.w3.org/2000/svg" viewBox="0 0 16 16">
  <title>house</title>
  <g id="Layer_1" data-name="Layer 1">
    <path d="M15.806,8.287,13.93,6.4V2.622a.31.31,0,0,0-.309-.309H11.908a.309.309,0,0,0-.309.309V4.054L8.285.719a.437.437,0,0,0-.633,0L.2,8.289a.438.438,0,0,0,.318.739H2.783v5.943a.308.308,0,0,0,.308.309h2.8a.309.309,0,0,0,.309-.309v-3.94A1.625,1.625,0,0,1,7.838,9.667h.405a1.6,1.6,0,0,1,1.609,1.364v3.94a.308.308,0,0,0,.308.309h2.8a.308.308,0,0,0,.308-.309V9.028H15.49A.438.438,0,0,0,15.806,8.287Z"/>
  </g>
</svg>

<svg xmlns="http://www.w3.org/2000/svg" viewBox="0 0 16 16"><title>house</title><g id="Layer_1" data-name="Layer 1"><path d="M15.81,8.29,13.93,6.4V2.62a.31.31,0,0,0-.31-.31H11.91a.31.31,0,0,0-.31.31V4.05L8.29.72a.45.45,0,0,0-.64,0L.2,8.29A.44.44,0,0,0,.52,9H2.78V15a.31.31,0,0,0,.31.31h2.8A.31.31,0,0,0,6.2,15V11A1.62,1.62,0,0,1,7.84,9.67h.4A1.59,1.59,0,0,1,9.85,11V15a.31.31,0,0,0,.31.31H13a.31.31,0,0,0,.31-.31V9h2.22A.44.44,0,0,0,15.81,8.29Z"/></g></svg>
